X:219
T:The Pigeon On The Gate
R:reel
M:4/4
L:1/8
K:Edor
dc|BE ~E2 BEdE|BE ~E2 dBAF|D2 (3FED ADFE|DEFA BAFA|
BE ~E2 BEdE|BE ~E2 B2 AF|D2 FA dfec|dBAF E2:|
FA|Beed efed|(3Bcd ef gedB|Addc d3 B|A2 FE DEFA|
Beed efed|(3Bcd ef g2 fg|af (3gfe fd ec|dBAF E2:|

